assets/Oncoming taxi/Flat/oncoming_taxi_flat.svg

<svg width="32" height="32" viewBox="0 0 32 32" fill="none" xmlns="http://www.w3.org/2000/svg">
<path d="M17.68 9H14.31C13.58 9 12.99 9.59001 12.99 10.32V11L15.99 12L18.99 11V10.32C19 9.59001 18.41 9 17.68 9Z" fill="#E6E6E6"/>
<path d="M6.12 30H7.88C8.49001 30 9 29.5 9 28.88V25H5V28.88C5 29.5 5.5 30 6.12 30ZM24.12 30H25.88C26.49 30 27 29.5 27 28.88V25H23V28.88C23 29.5 23.5 30 24.12 30Z" fill="#321B41"/>
<path d="M24.9883 16.99H25.08C26.7 16.99 28.01 18.3 28.01 19.92V21.0009L27.0512 22.5006L28.01 24.0004V24.64C28 25.39 27.39 26 26.64 26H5.36C4.61 26 4 25.39 4 24.64V23.9909L4.60258 22.4959L4 21.0009V19.92C4 18.3 5.30999 16.99 6.92999 16.99H7.00168L8.62297 15.3179C8.73077 14.9964 8.28152 13.2763 8.45577 12.9973C9.21908 11.7755 10.5683 11 12.05 11H19.94C21.4231 11 22.7733 11.7769 23.5363 13.0006C23.7096 13.2787 23.4289 15.0306 23.5363 15.3508L24.9883 16.99Z" fill="#FCD53F"/>
<path d="M6 21C6.55 21 7 21.45 7 22V23C7 23.55 6.55 24 6 24H4V21H6ZM26 24C25.45 24 25 23.55 25 23V22C25 21.45 25.45 21 26 21H28V24H26Z" fill="#E6E6E6"/>
<path d="M18.5 24H13.5C12.67 24 12 23.33 12 22.5C12 21.67 12.67 21 13.5 21H18.5C19.33 21 20 21.67 20 22.5C20 23.33 19.32 24 18.5 24Z" fill="#636363"/>
<path d="M8.03 13.9L7 17H25L23.97 13.9C23.86 13.58 23.71 13.28 23.53 13H8.47C8.29 13.28 8.14 13.58 8.03 13.9Z" fill="#26C9FC"/>
<path d="M11 22.5C11 23.3284 10.3284 24 9.5 24C8.67157 24 8 23.3284 8 22.5C8 21.6716 8.67157 21 9.5 21C10.3284 21 11 21.6716 11 22.5ZM24 22.5C24 23.3284 23.3284 24 22.5 24C21.6716 24 21 23.3284 21 22.5C21 21.6716 21.6716 21 22.5 21C23.3284 21 24 21.6716 24 22.5Z" fill="#FF822D"/>
<path d="M21.56 20H10.43C9.63998 20 8.98999 19.36 8.98999 18.56V17H22.99V18.56C23 19.36 22.35 20 21.56 20Z" fill="#F9C23C"/>
</svg>

<svg xmlns="http://www.w3.org/2000/svg" width="32" height="32" fill="none"><path fill="#E6E6E6" d="M17.68 9h-3.37c-.73 0-1.32.59-1.32 1.32V11l3 1 3-1v-.68C19 9.59 18.41 9 17.68 9Z"/><path fill="#321B41" d="M6.12 30h1.76C8.49 30 9 29.5 9 28.88V25H5v3.88C5 29.5 5.5 30 6.12 30Zm18 0h1.76c.61 0 1.12-.5 1.12-1.12V25h-4v3.88c0 .62.5 1.12 1.12 1.12Z"/><path fill="#FCD53F" d="M24.988 16.99h.092c1.62 0 2.93 1.31 2.93 2.93V21l-.959 1.5.959 1.5v.64c-.01.75-.62 1.36-1.37 1.36H5.36C4.61 26 4 25.39 4 24.64v-.65l.603-1.494L4 21V19.92c0-1.62 1.31-2.93 2.93-2.93h.072l1.621-1.672c.108-.322-.341-2.042-.167-2.32A4.243 4.243 0 0 1 12.05 11h7.89c1.483 0 2.833.777 3.596 2 .174.279-.107 2.03 0 2.35l1.452 1.64Z"/><path fill="#E6E6E6" d="M6 21c.55 0 1 .45 1 1v1c0 .55-.45 1-1 1H4v-3h2Zm20 3c-.55 0-1-.45-1-1v-1c0-.55.45-1 1-1h2v3h-2Z"/><path fill="#636363" d="M18.5 24h-5c-.83 0-1.5-.67-1.5-1.5s.67-1.5 1.5-1.5h5c.83 0 1.5.67 1.5 1.5s-.68 1.5-1.5 1.5Z"/><path fill="#26C9FC" d="M8.03 13.9 7 17h18l-1.03-3.1c-.11-.32-.26-.62-.44-.9H8.47c-.18.28-.33.58-.44.9Z"/><path fill="#FF822D" d="M11 22.5a1.5 1.5 0 1 1-3 0 1.5 1.5 0 0 1 3 0Zm13 0a1.5 1.5 0 1 1-3 0 1.5 1.5 0 0 1 3 0Z"/><path fill="#F9C23C" d="M21.56 20H10.43c-.79 0-1.44-.64-1.44-1.44V17h14v1.56c.01.8-.64 1.44-1.43 1.44Z"/></svg>
